assets/icons/Warning/light.svg

<svg xmlns="http://www.w3.org/2000/svg" width="16" height="16" fill="none" viewBox="0 0 16 16">
<path fill="#FFAF0F" fill-rule="evenodd" d="M1.27603 10.8634 6.3028 1.98903c.74697-1.318707 2.64613-1.318704 3.39309 0l5.02681 8.87437C15.516 12.2639 14.5047 14 12.8956 14H3.10308C1.494 14 .482737 12.2639 1.27603 10.8634Z" clip-rule="evenodd"/>
<path fill="#fff" d="M9 5c0-.55228-.44772-1-1-1s-1 .44772-1 1v2.5c0 .55229.44772 1 1 1 .55229 0 1-.44772 1-1V5ZM8 12c.55228 0 1-.4477 1-1s-.44772-1-1-1-1 .4477-1 1 .44772 1 1 1Z"/></svg>

<svg width="16" height="16" viewBox="0 0 16 16" fill="none" xmlns="http://www.w3.org/2000/svg">
<path fill-rule="evenodd" clip-rule="evenodd" d="M1.27603 10.8634L6.3028 1.98903C7.04977 0.670323 8.94893 0.670326 9.69589 1.98903L14.7227 10.8634C15.516 12.2639 14.5047 14 12.8956 14H3.10308C1.494 14 0.482737 12.2639 1.27603 10.8634Z" fill="#FFAF0F"/>
<path d="M9 5C9 4.44772 8.55228 4 8 4C7.44772 4 7 4.44772 7 5V7.5C7 8.05229 7.44772 8.5 8 8.5C8.55229 8.5 9 8.05228 9 7.5L9 5Z" fill="white"/>
<path d="M8 12C8.55228 12 9 11.5523 9 11C9 10.4477 8.55228 10 8 10C7.44772 10 7 10.4477 7 11C7 11.5523 7.44772 12 8 12Z" fill="white"/>
</svg>
